!!!OTL: Ach Mutter liebe Mutter
!!!ARE: Europa, Mitteleuropa, Deutschland
!!!SCT: L0084B
!!!YEM: Copyright 1995, estate of Helmut Schaffrath.
**kern
*ICvox
*Ivox
*M2/4
*k[f#]
*G:
{8d
=1
8.b
16b
8.b
16a
=2
4a
8g
8d
=3
8cc
8cc
16cc
16b
16dd
16b
=4
4a
8r}
{8d
=5
8.dd
16ee
8dd
8cc
=6
4b
16dd
16cc
16b
16a
=7
8g
8g
16b
16a
16g
16a
=8
4g}
{4a
=9
8b
8b
16dd
16cc
8a
=10
4g
8r}
==
!!!AGN: Lied
!! Bote 1807, dann Buesching/von der Hagen
!!!ONB: ESAC (Essen Associative Code) Database: ERK5
!!!AMT: simple duple
!!!AIN: vox
!!!EED: Helmut Schaffrath
!!!EEV: 1.0
*-
